.files/icons/communication/Urgent-mail.svg

<svg fill="none" height="48" viewBox="0 0 48 48" width="48" xmlns="http://www.w3.org/2000/svg"><g clip-rule="evenodd" fill="#000" fill-rule="evenodd"><path d="m11 4c-.5523 0-1 .44772-1 1v22c0 .5523.4477 1 1 1h11.4444v-4h-4.4444l8.8889-12v8h4.4444l-5.9259 8h11.5926c.5523 0 1-.4477 1-1v-22c0-.55228-.4477-1-1-1z" opacity=".3"/><path d="m22.4444 32 8.8889-12h-4.4444v-8l-8.8889 12h4.4444z"/></g></svg>

<svg width="48" height="48" viewBox="0 0 48 48" fill="none" xmlns="http://www.w3.org/2000/svg">
<path opacity="0.3" fill-rule="evenodd" clip-rule="evenodd" d="M11 4C10.4477 4 10 4.44772 10 5V27C10 27.5523 10.4477 28 11 28H22.4444V24H18L26.8889 12V20H31.3333L25.4074 28H37C37.5523 28 38 27.5523 38 27V5C38 4.44772 37.5523 4 37 4H11Z" fill="black"/>
<path fill-rule="evenodd" clip-rule="evenodd" d="M22.4444 32L31.3333 20H26.8889V12L18 24H22.4444V32Z" fill="black"/>
</svg>
